Gruvbox-Plus-Dark/actions/16/view-choose.svg

<svg width="16" height="16" version="1.1" xmlns="http://www.w3.org/2000/svg">
  <defs>
    <style type="text/css">.ColorScheme-Text { color:#ebdbb2; } .ColorScheme-Highlight { color:#458588; }</style>
  </defs>
  <path class="ColorScheme-Text" d="m2 1s-1 0-1 1v12c0 1 1 1 1 1h12s1 0 1-1v-12c0-1-1-1-1-1h-12zm1 3h10v9h-10v-9zm1 1v3h3v-3h-3zm4 2v1h4v-1h-4zm-4 2v1h8v-1h-8zm0 2v1h8v-1h-8z" fill="currentColor"/>
</svg>

<svg xmlns="http://www.w3.org/2000/svg" width="16" height="16" version="1.1">
 <defs>
  <style id="current-color-scheme" type="text/css">
   .ColorScheme-Text { color:#444444; } .ColorScheme-Highlight { color:#4285f4; } .ColorScheme-NeutralText { color:#ff9800; } .ColorScheme-PositiveText { color:#4caf50; } .ColorScheme-NegativeText { color:#f44336; }
  </style>
 </defs>
 <path style="fill:currentColor" class="ColorScheme-Text" d="M 2 1 C 2 1 1 1 1 2 L 1 14 C 1 15 2 15 2 15 L 14 15 C 14 15 15 15 15 14 L 15 2 C 15 1 14 1 14 1 L 2 1 z M 3 4 L 13 4 L 13 13 L 3 13 L 3 4 z M 4 5 L 4 8 L 7 8 L 7 5 L 4 5 z M 8 7 L 8 8 L 12 8 L 12 7 L 8 7 z M 4 9 L 4 10 L 12 10 L 12 9 L 4 9 z M 4 11 L 4 12 L 12 12 L 12 11 L 4 11 z"/>
</svg>
